!!!COM: Bach, Johann Sebastian
!!!OTL: O Welt, sieh hier dein Leben
!!!ONM: No. 366
!!!OCL: Erk
!!!YOE: Riemenschneider, Albert
!!!OPR: 371 Harmonized Chorales and 69 Chorale Melodies with Figured Bass
!!!OPT: Bach Chorale Harmonizations
**kern	**kern	**kern	**kern
! bass	! tenor	! alto	! soprano
*M4/4	*M4/4	*M4/4	*M4/4
*A:	*A:	*A:	*A:
4A	4e	8a	8cc#
.	.	8g#	8b
=1	=1	=1	=1
8d	8f#	4.f#	4a
8c#	8e	.	.
4B	4d	.	4b
.	.	8g#	.
4A	4e	4.a	8cc#
.	.	.	8dd
4C#	4A	.	4ee
.	.	8e	.
=2	=2	=2	=2
4BB	4A	4f#	2dd
4E	4G#	4e	.
4AA;	4A;	4e;	4cc#;
8A	4e	4a	8cc#
8B	.	.	8dd
=3	=3	=3	=3
4c#	4e	8a	4ee
.	.	8g#	.
8C#	4e	8a	4ee
8D	.	8b	.
4E	8e	8g#	4b
.	8d	8f#	.
8A	4c#	4e	8cc#
8G#	.	.	8b
=4	=4	=4	=4
4F#	4c#	4e	2a
4BB	4B	4d#	.
4E;	4B;	4e;	4g#;
8E	4G#	4B	4e
8D	.	.	.
=5	=5	=5	=5
8C#	4A	8e	4a
8D	.	8f#	.
8C#	4d	4g#	4b
8BB	.	.	.
[8AA	8e	8a	8cc#
8AA]	8d	8g#	8b
8A	8e	8a	8cc#
8D	8f#	8b	8dd
=6	=6	=6	=6
2E;	2e;	2g#;	2b;
4r	4r	4r	4r
4C#	4e#	4g#	8cc#
.	.	.	8b
=7	=7	=7	=7
4F#	8c#	4f#	4a
.	8d	.	.
4G#	8c#	4e	4b
.	8B	.	.
8A	4A	8e	8cc#
8B	.	8d	8dd
8A	4A	4c#	4ee
8G#	.	.	.
=8	=8	=8	=8
4F#	8A	8c#	2dd
.	[8f#	16B	.
.	.	16A	.
4G#	8f#]	4B	.
.	8e	.	.
4A;	4e;	4A;	4cc#;
4F#	4f#	4a	8cc#
.	.	.	8dd
=9	=9	=9	=9
8G#	4e	8b	4ee
8A	.	8cc#	.
8G#	4B	8b	4ee
8F#	.	8a	.
8E	8B	8g#	4b
8F#	8A	8f#	.
8E	8G#	4g#	8cc#
8D#	8F#	.	8b
=10	=10	=10	=10
4C#	8E	8g#	2a
.	4c#	16f#	.
.	.	16e	.
4D#	.	4f#	.
.	8B	.	.
4E;	4B;	4e;	4g#;
4C#	8c#	8e	4e
.	8B	8d	.
=11	=11	=11	=11
4F#	4A	8c#	4a
.	.	8d	.
8E	8G#	8c#	4b
8D	8F#	8B	.
8C#	4.E	4A	8cc#
8BB	.	.	8dd
8C#	.	4a	8ee
8D	8F#	.	8dd
=12	=12	=12	=12
8E	8G#	8e	4cc#
8D	[8A	8f#	.
4E	8A]	8B	4b
.	8G#	8e	.
4AA;	4E;	4c#;	4a;
==	==	==	==
*-	*-	*-	*-
!!!CDT: 1685/3//-1750/7/28
!!!OCY: Deutschland
!!!AGN: chorale
!!!AST: Baroque
!!!AIN: vox
!!!YOY: 1941
!!!PPP: New York; London
!!!PPR: G. Schirmer
!!!ENC: David Huron
!!!EED: David Huron
!!!YEN: United States of America
!!!YER: 1992
!!!YEC: Copyright 1992 David Huron
!!!YEM: Rights to all derivative electronic formats reserved.
!!!YER: March 20, 1996
!!!AMT: simple quadruple
!!!EEV: 1.1
